img/icon/main_2_32.svg

<svg height="32" width="32" xmlns="http://www.w3.org/2000/svg" xmlns:xlink="http://www.w3.org/1999/xlink">
  <linearGradient id="a">
    <stop offset="0" stop-color="#a4c8f0"/>
    <stop offset="1" stop-color="#737ba6"/>
  </linearGradient>
  <linearGradient id="b" gradientTransform="matrix(.06944661 0 0 .06315146 -20.306865 2.635385)" gradientUnits="userSpaceOnUse" x1="326.68332" x2="721.24884" y1="-5.248622" y2="429.62204">
    <stop offset="0" stop-color="#fdffff"/>
    <stop offset="1" stop-color="#cfcfff"/>
  </linearGradient>
  <linearGradient id="c" gradientTransform="matrix(.06944661 0 0 .06315146 -20.306865 2.635385)" gradientUnits="userSpaceOnUse" x1="376.13055" x2="644.93158" xlink:href="#a" y1="-15.148117" y2="440.22864"/>
  <linearGradient id="d" gradientTransform="matrix(.44633232 0 0 .44630355 25.255046 4.876096)" gradientUnits="userSpaceOnUse" x1="40.649776" x2="37.074421" xlink:href="#a" y1="-1.236028" y2="22.319952"/>
  <path d="m3.7865048.4999992h20.9936592l6.719836 6.7465245v20.9936593c0 1.812885-1.410226 3.259817-3.22311 3.259817h-24.4903852c-1.8128847 0-3.2865048-1.47362-3.2865048-3.286505v-24.490385c0-1.8128859 1.4736201-3.2231108 3.2865048-3.2231108z" fill="url(#b)" stroke="url(#c)"/>
  <path d="m14.859036 16.045556 5.839154-8.0226126-16.19819-.0458867v-2.9770567h21.5v4l-10.311474 7.87499-6.0137826 7.12501h17.8252566l-.000136 3h-23.499932l.000136-3.587763z" fill="#f00" fill-opacity=".822222" fill-rule="evenodd"/>
  <path d="m7.8023122 10.5h5.2674898l9.697247 11h-5.267489z" fill="#49b7ff" fill-opacity=".65" fill-rule="evenodd" stroke="#49b7ff" stroke-linecap="square"/>
  <g transform="matrix(1.3130705 0 0 1.3130705 -28.534149 -7.632499)">
    <path d="m45.935113 10.954324a4.888402 4.8880869 0 0 1 -9.776804 0 4.888402 4.8880869 0 1 1 9.776804 0z" fill-opacity=".392157" fill-rule="evenodd"/>
    <path d="m45.786334 10.678042a4.4633232 4.4630355 0 0 1 -8.926646 0 4.4633232 4.4630355 0 1 1 8.926646 0z" fill="#fff" fill-rule="evenodd" stroke="url(#d)" stroke-width=".761574"/>
    <text font-family="Sans" font-size="7.416594" letter-spacing="0" transform="scale(.97415479 1.0265309)" word-spacing="0" x="40.347225" y="12.74812"><tspan x="40.347225" y="12.74812">2</tspan></text>
  </g>
  <g fill-rule="evenodd">
    <path d="m3 3h3v7h-3z" fill-opacity=".327778"/>
    <path d="m3 3h1.5v7h-1.5z" fill-opacity=".716667"/>
    <path d="m26 22h3v7h-3z" fill-opacity=".327778"/>
    <path d="m27.5 22h1.5v7h-1.5z" fill-opacity=".716667"/>
  </g>
</svg>

<?xml version="1.0" encoding="UTF-8" standalone="no"?>
<!-- Created with Inkscape (http://www.inkscape.org/) -->

<svg
   xmlns:dc="http://purl.org/dc/elements/1.1/"
   xmlns:cc="http://creativecommons.org/ns#"
   xmlns:rdf="http://www.w3.org/1999/02/22-rdf-syntax-ns#"
   xmlns:svg="http://www.w3.org/2000/svg"
   xmlns="http://www.w3.org/2000/svg"
   xmlns:xlink="http://www.w3.org/1999/xlink"
   xmlns:sodipodi="http://sodipodi.sourceforge.net/DTD/sodipodi-0.dtd"
   xmlns:inkscape="http://www.inkscape.org/namespaces/inkscape"
   version="1.1"
   width="32"
   height="32"
   id="svg2494"
   inkscape:version="0.48.2 r9819"
   sodipodi:docname="icon_main_2_32.svg"
   inkscape:export-filename="L:\projects\rezonator2\img\icon\icon_main_2_32.png"
   inkscape:export-xdpi="90"
   inkscape:export-ydpi="90">
  <sodipodi:namedview
     pagecolor="#ffffff"
     bordercolor="#666666"
     borderopacity="1"
     objecttolerance="10"
     gridtolerance="10"
     guidetolerance="10"
     inkscape:pageopacity="0"
     inkscape:pageshadow="2"
     inkscape:window-width="1920"
     inkscape:window-height="1138"
     id="namedview4085"
     showgrid="true"
     inkscape:zoom="22.07499"
     inkscape:cx="20.314412"
     inkscape:cy="19.100205"
     inkscape:window-x="-8"
     inkscape:window-y="-8"
     inkscape:window-maximized="1"
     inkscape:current-layer="svg2494">
    <inkscape:grid
       type="xygrid"
       id="grid4622"
       empspacing="5"
       visible="true"
       enabled="true"
       snapvisiblegridlinesonly="true" />
  </sodipodi:namedview>
  <defs
     id="defs2496">
    <linearGradient
       x1="17.51009"
       y1="8.6050844"
       x2="19.334143"
       y2="6.1806488"
       id="linearGradient3949"
       xlink:href="#linearGradient3157"
       gradientUnits="userSpaceOnUse"
       gradientTransform="matrix(2.0735682,0,0,2.0663791,-1.3083641,-4.661268)" />
    <linearGradient
       id="linearGradient3165">
      <stop
         id="stop3167"
         style="stop-color:#a4c8f0;stop-opacity:1"
         offset="0" />
      <stop
         id="stop3169"
         style="stop-color:#737ba6;stop-opacity:1"
         offset="1" />
    </linearGradient>
    <linearGradient
       x1="4"
       y1="3"
       x2="20"
       y2="22"
       id="linearGradient3171"
       xlink:href="#linearGradient3165-6"
       gradientUnits="userSpaceOnUse"
       gradientTransform="matrix(24.828898,0,0,21.104565,-567.8925,-472.33769)" />
    <linearGradient
       id="linearGradient3157">
      <stop
         id="stop3159"
         style="stop-color:#fdffff;stop-opacity:1"
         offset="0" />
      <stop
         id="stop3161"
         style="stop-color:#cfcfff;stop-opacity:1"
         offset="1" />
    </linearGradient>
    <linearGradient
       x1="5"
       y1="3"
       x2="20"
       y2="21"
       id="linearGradient3163"
       xlink:href="#linearGradient3157-4"
       gradientUnits="userSpaceOnUse"
       gradientTransform="matrix(24.828898,0,0,21.104565,-567.8925,-472.33769)" />
    <linearGradient
       x1="12.391796"
       y1="1.5373778"
       x2="20.721073"
       y2="7.7745237"
       id="linearGradient3304"
       xlink:href="#linearGradient3165"
       gradientUnits="userSpaceOnUse"
       gradientTransform="matrix(24.828898,0,0,21.104565,-67.892504,-472.33769)" />
    <filter
       color-interpolation-filters="sRGB"
       id="filter3312">
      <feGaussianBlur
         id="feGaussianBlur3314"
         stdDeviation="0.93052244" />
    </filter>
    <linearGradient
       x1="25.5"
       y1="13"
       x2="46.5"
       y2="13"
       id="linearGradient3895"
       xlink:href="#linearGradient3157-4"
       gradientUnits="userSpaceOnUse" />
    <linearGradient
       id="linearGradient3157-4">
      <stop
         id="stop3159-4"
         style="stop-color:#fdffff;stop-opacity:1"
         offset="0" />
      <stop
         id="stop3161-3"
         style="stop-color:#cfe2ff;stop-opacity:1"
         offset="1" />
    </linearGradient>
    <linearGradient
       x1="29.8125"
       y1="5.5625"
       x2="41.8125"
       y2="20.5625"
       id="linearGradient3873"
       xlink:href="#linearGradient3165-6"
       gradientUnits="userSpaceOnUse" />
    <linearGradient
       id="linearGradient3165-6">
      <stop
         id="stop3167-1"
         style="stop-color:#d1e6fd;stop-opacity:1"
         offset="0" />
      <stop
         id="stop3169-1"
         style="stop-color:#88a8d9;stop-opacity:1"
         offset="1" />
    </linearGradient>
    <linearGradient
       x1="41.727272"
       y1="5.3636355"
       x2="30.272728"
       y2="20.636364"
       id="linearGradient3982"
       xlink:href="#linearGradient3165-6"
       gradientUnits="userSpaceOnUse" />
    <linearGradient
       x1="41.727272"
       y1="5.3636355"
       x2="30.272728"
       y2="20.636364"
       id="linearGradient4699"
       xlink:href="#linearGradient3165-6"
       gradientUnits="userSpaceOnUse" />
    <linearGradient
       x1="326.68332"
       y1="-5.2486219"
       x2="721.24884"
       y2="429.62204"
       id="linearGradient5374"
       xlink:href="#linearGradient3157"
       gradientUnits="userSpaceOnUse"
       gradientTransform="matrix(1.0954643,0,0,0.99616319,-317.21155,-418.31601)" />
    <linearGradient
       x1="376.13055"
       y1="-15.148117"
       x2="644.93158"
       y2="440.22864"
       id="linearGradient5390"
       xlink:href="#linearGradient3165"
       gradientUnits="userSpaceOnUse"
       gradientTransform="matrix(1.0954643,0,0,0.99616319,-317.21155,-418.31601)" />
    <linearGradient
       x1="40.649776"
       y1="-1.2360277"
       x2="37.074421"
       y2="22.319952"
       id="linearGradient5393"
       xlink:href="#linearGradient3165"
       gradientUnits="userSpaceOnUse" />
    <linearGradient
       inkscape:collect="always"
       xlink:href="#linearGradient3157"
       id="linearGradient4102"
       gradientUnits="userSpaceOnUse"
       gradientTransform="matrix(0.06944661,0,0,0.06315146,-20.306865,2.6353853)"
       x1="326.68332"
       y1="-5.2486219"
       x2="721.24884"
       y2="429.62204" />
    <linearGradient
       inkscape:collect="always"
       xlink:href="#linearGradient3165"
       id="linearGradient4104"
       gradientUnits="userSpaceOnUse"
       gradientTransform="matrix(0.06944661,0,0,0.06315146,-20.306865,2.6353853)"
       x1="376.13055"
       y1="-15.148117"
       x2="644.93158"
       y2="440.22864" />
    <linearGradient
       inkscape:collect="always"
       xlink:href="#linearGradient3165"
       id="linearGradient4620"
       gradientUnits="userSpaceOnUse"
       gradientTransform="matrix(0.44633232,0,0,0.44630355,25.255046,4.876096)"
       x1="40.649776"
       y1="-1.2360277"
       x2="37.074421"
       y2="22.319952" />
  </defs>
  <metadata
     id="metadata2499">
    <rdf:RDF>
      <cc:Work
         rdf:about="">
        <dc:format>image/svg+xml</dc:format>
        <dc:type
           rdf:resource="http://purl.org/dc/dcmitype/StillImage" />
        <dc:title></dc:title>
      </cc:Work>
    </rdf:RDF>
  </metadata>
  <path
     inkscape:connector-curvature="0"
     style="fill:url(#linearGradient4102);fill-opacity:1;stroke:url(#linearGradient4104);stroke-width:1;stroke-miterlimit:4;stroke-opacity:1;stroke-dasharray:none"
     id="rect4858"
     d="m 3.7865048,0.4999992 20.9936592,0 L 31.5,7.2465237 31.5,28.240183 C 31.5,30.053068 30.089774,31.5 28.27689,31.5 l -24.4903852,0 C 1.9736201,31.5 0.5,30.02638 0.5,28.213495 L 0.5,3.72311 C 0.5,1.9102241 1.9736201,0.4999992 3.7865048,0.4999992 z" />
  <path
     inkscape:connector-curvature="0"
     style="fill:#ff0000;fill-opacity:0.82222224;fill-rule:evenodd;stroke:none"
     id="path3330"
     d="M 14.859036,16.045556 20.69819,8.0229434 4.5,7.9770567 4.5,5 26,5 26,9 15.688526,16.87499 9.6747434,24 27.5,24 l -1.36e-4,3 -23.499932,0 1.36e-4,-3.587763 z"
     sodipodi:nodetypes="ccccccccccccc" />
  <path
     inkscape:connector-curvature="0"
     style="fill:#49b7ff;fill-opacity:0.65;fill-rule:evenodd;stroke:#49b7ff;stroke-width:1;stroke-linecap:square;stroke-linejoin:miter;stroke-miterlimit:4;stroke-opacity:1;stroke-dasharray:none;stroke-dashoffset:0"
     id="rect3355"
     d="m 7.8023122,10.5 5.2674898,0 9.697247,11 -5.267489,0 z"
     sodipodi:nodetypes="ccccc" />
  <g
     id="g4614"
     transform="matrix(1.3130705,0,0,1.3130705,-28.534149,-7.6324987)">
    <path
       d="m 45.935113,10.954324 a 4.888402,4.8880869 0 0 1 -9.776804,0 4.888402,4.8880869 0 1 1 9.776804,0 z"
       id="path5395"
       style="fill:#000000;fill-opacity:0.39215686;fill-rule:evenodd;stroke:none;display:inline"
       inkscape:connector-curvature="0" />
    <path
       d="m 45.786334,10.678042 a 4.4633232,4.4630355 0 0 1 -8.926646,0 4.4633232,4.4630355 0 1 1 8.926646,0 z"
       id="path3093"
       style="fill:#ffffff;fill-opacity:1;fill-rule:evenodd;stroke:url(#linearGradient4620);stroke-width:0.76157373;stroke-linecap:butt;stroke-linejoin:miter;stroke-miterlimit:4;stroke-opacity:1;stroke-dasharray:none;display:inline"
       inkscape:connector-curvature="0" />
    <text
       x="40.347225"
       y="12.74812"
       transform="scale(0.97415479,1.0265309)"
       id="text3863"
       xml:space="preserve"
       style="font-size:7.41659403px;font-style:normal;font-variant:normal;font-weight:normal;font-stretch:normal;text-align:start;line-height:125%;letter-spacing:0px;word-spacing:0px;writing-mode:lr-tb;text-anchor:start;fill:#000000;fill-opacity:1;stroke:none;display:inline;font-family:Sans;-inkscape-font-specification:Sans"
       sodipodi:linespacing="125%"><tspan
         x="40.347225"
         y="12.74812"
         id="tspan3865">2</tspan></text>
  </g>
  <rect
     width="3.0000002"
     height="6.9999995"
     x="2.9999998"
     y="3"
     id="rect3316"
     style="fill:#000000;fill-opacity:0.32777788;fill-rule:evenodd;stroke:none" />
  <rect
     width="1.5"
     height="6.9999995"
     x="2.9999998"
     y="3"
     id="rect3318"
     style="fill:#000000;fill-opacity:0.71666721;fill-rule:evenodd;stroke:none" />
  <rect
     style="fill:#000000;fill-opacity:0.32777788;fill-rule:evenodd;stroke:none"
     id="rect4626"
     y="22"
     x="26"
     height="6.9999995"
     width="3.0000002" />
  <rect
     style="fill:#000000;fill-opacity:0.71666721;fill-rule:evenodd;stroke:none"
     id="rect4628"
     y="22"
     x="27.5"
     height="6.9999995"
     width="1.5" />
</svg>
